src/assets/img/unsorted/emotes/43.svg

<svg xmlns:xlink="http://www.w3.org/1999/xlink" height="100.8" width="132.65" xmlns="http://www.w3.org/2000/svg"><use height="13.5" transform="translate(65.5 67.75)" width="24.45" xlink:href="#a"/><defs><g id="a"><path d="M8.65-.15q3.5 1.8 3.55 2.8 0 .95-3.15.4l-4.2-.5q1.3-.2 2.3-1.4l.9-1.6.6.3M.4-1.95Q.5-.2 1.55 1.15q.75.95 1.8 1.3L.9 2.3h-3.7l1.3-1.1Q-.5 0-.35-1.65v-.3H.4M-8-.4q.3.9.9 1.6.75.95 1.7 1.25l-2.75.4-4.1-.2q0-.95 3.7-2.75L-8-.4" fill="#6596cc" fill-opacity=".431" fill-rule="evenodd" transform="translate(12.25 5.8)"/><path d="M-3.45 4.75.1 7.2l3.4-2.3" fill="none" stroke="#333" stroke-linecap="round" stroke-linejoin="round" transform="translate(12.25 5.8)"/><path d="m.9-1.4 1.8-1.85q.8-.7 1.75-1.1 1.1-.6 2.4-.85h.7q.75 1.25.75 2.9L8.05-.45l-.9 1.6q-1 1.2-2.3 1.4l-.5.05-1-.15q-1.05-.35-1.8-1.3Q.65.05.7-1.4h.2m-1.25-.25Q-.5 0-1.5 1.2l-1.3 1.1-1.5.35-1.1-.2q-.95-.3-1.7-1.25Q-7.7.5-8-.4q-.3-.85-.25-1.85Q-8.3-4-7.4-5.3q3.9-.15 6.1 2.45l.8 1 .15.2" fill="#fff" fill-rule="evenodd" transform="translate(12.25 5.8)"/><path d="M.7-1.4.75-2 .7-2.65m0 1.25Q.65.05 1.55 1.15q.75.95 1.8 1.3l1 .15.5-.05q1.3-.2 2.3-1.4l.9-1.6.25-1.85q0-1.65-.75-2.9h-.7q-1.3.25-2.4.85-.95.4-1.75 1.1L.9-1.4.75-2M-7.4-5.3q3.9-.15 6.1 2.45l.8 1m.15.2.15.2.1-.5.05-.7" fill="none" stroke="#666" stroke-linecap="round" stroke-linejoin="round" transform="translate(12.25 5.8)"/><path d="M-.35-1.65Q-.5 0-1.5 1.2l-1.3 1.1-1.5.35-1.1-.2q-.95-.3-1.7-1.25Q-7.7.5-8-.4q-.3-.85-.25-1.85Q-8.3-4-7.4-5.3m6.9 3.45.15.2" fill="none" stroke="#666" stroke-linecap="round" stroke-linejoin="round" transform="translate(12.25 5.8)"/><path d="M-3.2-3.95q.55-.05.95.45.4.55.4 1.35t-.4 1.3q-.4.55-.95.55-.55 0-.95-.55-.4-.5-.4-1.3t.4-1.35q.4-.5.95-.45m-.8 1.4.15.4.35.25.3-.25q.15-.15.15-.4l-.15-.5q-.1-.2-.3-.2l-.35.2-.15.5" fill-rule="evenodd" transform="translate(12.25 5.8)"/><path d="m-4-2.55.15-.5.35-.2q.2 0 .3.2l.15.5q0 .25-.15.4l-.3.25-.35-.25-.15-.4" fill="#fff" fill-rule="evenodd" transform="translate(12.25 5.8)"/><path d="m4.45-3.85.45.4q.4.5.4 1.35 0 .75-.4 1.3-.4.5-.95.5Q3.4-.3 3-.8q-.4-.55-.35-1.3-.05-.4.05-.65.8-.7 1.75-1.1m-1.15.8-.15.5q0 .25.15.45.1.15.35.2l.3-.2.2-.45-.2-.5-.3-.15-.35.15" fill-rule="evenodd" transform="translate(12.25 5.8)"/></g></defs></svg>

<?xml version="1.0" encoding="UTF-8" standalone="no"?>
<svg xmlns:xlink="http://www.w3.org/1999/xlink" height="100.8px" width="132.65px" xmlns="http://www.w3.org/2000/svg">
  <g transform="matrix(1.0, 0.0, 0.0, 1.0, 77.75, 73.55)">
    <use height="13.5" transform="matrix(1.0, 0.0, 0.0, 1.0, -12.25, -5.8)" width="24.45" xlink:href="#shape0"/>
  </g>
  <defs>
    <g id="shape0" transform="matrix(1.0, 0.0, 0.0, 1.0, 12.25, 5.8)">
      <path d="M8.65 -0.15 Q12.15 1.65 12.2 2.65 12.2 3.6 9.05 3.05 L4.85 2.55 Q6.15 2.35 7.15 1.15 L8.05 -0.45 8.65 -0.15 M0.4 -1.95 Q0.5 -0.2 1.55 1.15 2.3 2.1 3.35 2.45 L0.9 2.3 -2.8 2.3 -1.5 1.2 Q-0.5 0.0 -0.35 -1.65 L-0.35 -1.95 -0.1 -1.95 0.15 -1.95 0.4 -1.95 M-8.0 -0.4 Q-7.7 0.5 -7.1 1.2 -6.35 2.15 -5.4 2.45 L-8.15 2.85 -12.25 2.65 Q-12.25 1.7 -8.55 -0.1 L-8.0 -0.4" fill="#6596cc" fill-opacity="0.43137255" fill-rule="evenodd" stroke="none"/>
      <path d="M-3.45 4.75 L0.1 7.2 3.5 4.9" fill="none" stroke="#333333" stroke-linecap="round" stroke-linejoin="round" stroke-width="1.0"/>
      <path d="M0.9 -1.4 L2.7 -3.25 Q3.5 -3.95 4.45 -4.35 5.55 -4.95 6.85 -5.2 L7.55 -5.2 Q8.3 -3.95 8.3 -2.3 L8.05 -0.45 7.15 1.15 Q6.15 2.35 4.85 2.55 L4.35 2.6 3.35 2.45 Q2.3 2.1 1.55 1.15 0.65 0.05 0.7 -1.4 L0.9 -1.4 M-0.35 -1.65 Q-0.5 0.0 -1.5 1.2 L-2.8 2.3 -4.3 2.65 -5.4 2.45 Q-6.35 2.15 -7.1 1.2 -7.7 0.5 -8.0 -0.4 -8.3 -1.25 -8.25 -2.25 -8.3 -4.0 -7.4 -5.3 -3.5 -5.45 -1.3 -2.85 L-0.5 -1.85 -0.35 -1.65" fill="#ffffff" fill-rule="evenodd" stroke="none"/>
      <path d="M0.7 -1.4 L0.75 -2.0 0.7 -2.65 M0.7 -1.4 Q0.65 0.05 1.55 1.15 2.3 2.1 3.35 2.45 L4.35 2.6 4.85 2.55 Q6.15 2.35 7.15 1.15 L8.05 -0.45 8.3 -2.3 Q8.3 -3.95 7.55 -5.2 L6.85 -5.2 Q5.55 -4.95 4.45 -4.35 3.5 -3.95 2.7 -3.25 L0.9 -1.4 0.75 -2.0 M-7.4 -5.3 Q-3.5 -5.45 -1.3 -2.85 L-0.5 -1.85 M-0.35 -1.65 L-0.2 -1.45 -0.1 -1.95 -0.05 -2.65" fill="none" stroke="#666666" stroke-linecap="round" stroke-linejoin="round" stroke-width="1.0"/>
      <path d="M-0.35 -1.65 Q-0.5 0.0 -1.5 1.2 L-2.8 2.3 -4.3 2.65 -5.4 2.45 Q-6.35 2.15 -7.1 1.2 -7.7 0.5 -8.0 -0.4 -8.3 -1.25 -8.25 -2.25 -8.3 -4.0 -7.4 -5.3 M-0.5 -1.85 L-0.35 -1.65" fill="none" stroke="#666666" stroke-linecap="round" stroke-linejoin="round" stroke-width="1.0"/>
      <path d="M-3.2 -3.95 Q-2.65 -4.0 -2.25 -3.5 -1.85 -2.95 -1.85 -2.15 -1.85 -1.35 -2.25 -0.85 -2.65 -0.3 -3.2 -0.3 -3.75 -0.3 -4.15 -0.85 -4.55 -1.35 -4.55 -2.15 -4.55 -2.95 -4.15 -3.5 -3.75 -4.0 -3.2 -3.95 M-4.0 -2.55 L-3.85 -2.15 -3.5 -1.9 -3.2 -2.15 Q-3.05 -2.3 -3.05 -2.55 L-3.2 -3.05 Q-3.3 -3.25 -3.5 -3.25 L-3.85 -3.05 -4.0 -2.55" fill="#000000" fill-rule="evenodd" stroke="none"/>
      <path d="M-4.0 -2.55 L-3.85 -3.05 -3.5 -3.25 Q-3.3 -3.25 -3.2 -3.05 L-3.05 -2.55 Q-3.05 -2.3 -3.2 -2.15 L-3.5 -1.9 -3.85 -2.15 -4.0 -2.55" fill="#ffffff" fill-rule="evenodd" stroke="none"/>
      <path d="M4.45 -3.85 L4.9 -3.45 Q5.3 -2.95 5.3 -2.1 5.3 -1.35 4.9 -0.8 4.5 -0.3 3.95 -0.3 3.4 -0.3 3.0 -0.8 2.6 -1.35 2.65 -2.1 2.6 -2.5 2.7 -2.75 3.5 -3.45 4.45 -3.85 M3.3 -3.05 L3.15 -2.55 Q3.15 -2.3 3.3 -2.1 3.4 -1.95 3.65 -1.9 L3.95 -2.1 4.15 -2.55 3.95 -3.05 3.65 -3.2 3.3 -3.05" fill="#000000" fill-rule="evenodd" stroke="none"/>
    </g>
  </defs>
</svg>
